source/svgs/bowtie/uEA4B-row-child.svg

<svg xmlns="http://www.w3.org/2000/svg" viewBox="0 0 448 448" enable-background="new 0 0 448 448"><path d="M320 160h-320v-160h320v160zm-288-32h256v-96h-256v96zm416 320h-256v-160h256v160zm-224-32h192v-96h-192v96zm-32-64h-96v-192h-32v224h128v-32z"/></svg>

<svg xmlns="http://www.w3.org/2000/svg" viewBox="0 0 448 448"><path d="M320 160H0V0h320v160zM32 128h256V32H32v96zm416 320H192V288h256v160zm-224-32h192v-96H224v96zm-32-64H96V160H64v224h128v-32z"/></svg>
